X: 71
T: Miss Maxwell of Moriston
B: William Shepherd "1st Collection" 1793 p.7 #1
C: William Shepherd (17??-1812)
Z: 2012 John Chambers <jc:trillian.mit.edu>
M: 6/8
L: 1/8
K: Cm
G/F/ |\
E>DC C<G,C | E<CG Tc2d | e>dc BGE | F<BG FDB, |\
E>DC C<G,C | E<CG Tc2d | edc Gc=B |
[1 cGE C2 :|2 c3 c2 |: G |\
Tc2d {cd}edc | ECG c2G | TB2c {Bc}dcB | FBG FDB, |\
Tc2d {cd}edc |
[1 CEG Tc2d | edc Gc=B | c3 c2 :|\
[2 Gc=B c2D | EFG FBG | FD=B, C2 |]
